X:1
T:Weep, O mine eyes - Wilbye
T:#
%%score { 1 | 2 } 3 { ( 4 5 ) | 6 }
L:1/8
Q:1/4=108
M:4/4
K:Bb
V:1 treble nm="Soprano I" snm="S"
V:2 treble 
V:3 treble-8 nm="Tenor" snm="T"
V:4 treble nm="Midi_7"
V:5 treble 
V:6 bass 
V:1
"^Weep, O mine eyes"!p! B8- | B4 A2 G2 | A8 | d8- | d4 c2"^John Wilbye\n (1574-1638)" B2 | %5
w: Weep,|* O mine|eyes,|weep,|* O mine|
[M:4/4] A2 G2 (G2 ^F2) | G8 | z2"^cresc." B2 B2 B2 | e3 d c4 | f3 e d4 | e3 e d2 d2 | c2 B2 c4 | %12
w: eyes and cease *|not,|Your spring tides,|out a- las!|out a- las,|out a- las, me-|thinks in- crease|
 d2 f2 f3 e | d2 d2 c3 B | A4 A4 | B2 A2 G4- | G4 ^F4 | z4!p! G4- | G4 ^F2 =E2 | ^F8 | z4 B4- | %21
w: not, your spring tides,|out a- las, me-|thinks, me-|thinks in- crease|* not.|Weep,|* O mine|eyes,|weep,|
 B4 A2 G2 | ^F2 B2 A4 | G2"^cresc." d2 d2 d2 | B3 A G4 | c3 B A4 | d3 c B4 | B2 c2 B2 B2 | %28
w: * O mine|eyes and cease|not, Your spring tides,|out a- las!|out a- las,|out a- las,|out a- las, me-|
 A2 B2 (B2 A2) | B2 d2 d2 c2 | B2 B2 A2 G2 | ^F4 z2 d2- | d2 d4 c2 | d4 A2!p! =f2 | e2 d2 c2 B2 | %35
w: thinks in- crease *|not, your spring tides,|out a- las, me-|thinks, me\-|* thinks in-|crease not. O|when, O when be-|
 A4 A2 B2 | A2 G2 ^F2 G2 | A8 | G4"^cresc." G4 | d6 d2 | d4 d4 | D2 =E2 F2!f! G2 | A4 B2 G2- | %43
w: gin you, O|when, O when be-|gin|you To|swell so|high, to|swell so high, that|I may drown|
 G2 A2 ^F4 | G4!p! d4 | c2 B2 A2 (GF) | =E4 ^F2 d2 | c2 B2 A2 (G2- | G2 ^F=E) F4 | G4"^cresc." B4 | %50
w: * me in|you? O|when, O when be\- *|gin you, O|when, O when be\-|* * * gin|you, be-|
 A8 | G2 A2 B2 c2 | d4 d4 | %53
w: gin|you, to swell so|high, that|
[Q:1/4=104][Q:1/4=104] c4[Q:1/4=102][Q:1/4=102] d2[Q:1/4=100][Q:1/4=100] B2- | %54
w: I may drown|
[Q:1/4=99][Q:1/4=99] B2[Q:1/4=98][Q:1/4=98] c2[Q:1/4=96][Q:1/4=96] A4 |[Q:1/4=95][Q:1/4=95] G16 |] %56
w: * me in|you?|
V:2
 z4!p! G4- | G4 ^F2 =E2 | ^F8 | z4 B4- | B4 A2 G2 |[M:4/4] ^F2 B2 A4 | G2"^cresc." d2 d2 d2 | %7
w: Weep,|* O mine|eyes,|weep,|* O mine|eyes and cease|not, Your spring tides,|
 B3 A G4 | c3 B A4 | d3 c B4 | B2 c2 B2 B2 | A2 B2 (B2 A2) | B2 d2 d2 c2 | B2 B2 A2 G2 | %14
w: out a- las!|out a- las,|out a- las,|out a- las, me-|thinks in- crease *|not, your spring tides,|out a- las, me-|
 ^F4 z2 d2- | d2 d4 c2 | d4 A4 |!p! B8- | B4 A2 G2 | A8 | d8- | d4 c2 B2 | A2 G2 (G2 ^F2) | G8 | %24
w: thinks, me\-|* thinks in-|crease not.|Weep,|* O mine|eyes,|weep,|* O mine|eyes and cease *|not,|
 z2"^cresc." B2 B2 B2 | e3 d c4 | f3 e d4 | e3 e d2 d2 | c2 B2 c4 | d2 f2 f3 e | d2 d2 c3 B | %31
w: Your spring tides,|out a- las!|out a- las,|out a- las, me-|thinks in- crease|not, your spring tides,|out a- las, me-|
 A4 A4 | B2 A2 G4 | ^F4!p! d4 | c2 B2 A2 (GF) | =E4 ^F2 d2 | c2 B2 A2 (G2- | G2 ^F=E) F4 | %38
w: thinks, me-|thinks in- crease|not. O|when, O when be\- *|gin you, O|when, O when be\-|* * * gin|
 G4"^cresc." B4 | A8 | G2 A2 B2 c2 | d4!f! d4 | c4 d2 B2- | B2 c2 A4 | G4 z2!p! f2 | e2 d2 c2 B2 | %46
w: you, be-|gin|you, to swell so|high, that|I may drown|* me in|you? O|when, O when be-|
 A4 A2 B2 | A2 G2 ^F2 G2 | A8 | G4"^cresc." G4 | d6 d2 | d4 d4 | D2 =E2 F2 G2 | A4 B2 G2- | %54
w: gin you, O|when, O when be-|gin|you To|swell so|high, to|swell so high, that|I may drown|
 G2 A2 ^F4 | G16 |] %56
w: * me in|you?|
V:3
!p! g8 | d8- | d4 d4 | B4 G4 | d8- |[M:4/4][K:treble-8] d8 | G6"^cresc." g2 | g2 g2 e3 d | %8
w: Weep,|O|* mine|eyes, and|cease||not, Your|spring tides, out a-|
 c4 f3 e | d4 g3 f | e2 c2 d3 e | f8 | B4 F4 | B2 B2 c2 c2 | d6 d2 | g2 f2 e4 | d8 |!p! g8 | d8- | %19
w: las! out a-|las, out a-|las, me- thinks in-|crease|not, your|spring tides, out a-|las, me-|thinks in- crease|not.|Weep,|O|
 d4 d4 | B4 G4 | d8- | d8 | G6"^cresc." g2 | g2 g2 e3 d | c4 f3 e | d4 g3 f | e2 c2 d3 e | f8 | %29
w: * mine|eyes, and|cease||not, Your|spring tides, out a-|las! out a-|las, out a-|las, me- thinks in-|crease|
 B4 F4 | B2 B2 c2 c2 | d6 d2 | g2 f2 e4 | d6!p! d2 | A2 B2 F2 G2 | A4 D2 B2 | F2 G2 D2 E2 | D8 | %38
w: not, your|spring tides, out a-|las, me-|thinks in- crease|not. O|when, O when be-|gin you, O|when, O when be-|gin|
 G4"^cresc." G2 g2- | g2 (^f=e f4) | g4 G4 | B2 c2 d2!f! =e2 | f4 d2 _e2- | e2 c2 d4 | G6!p! D2 | %45
w: you To swell|* so * *|high, to|swell so high that|I may drown|* me in|you? O|
 A2 B2 F2 G2 | A4 D2 B2 | F2 G2 D2 E2 | D8 | G4"^cresc." G2 g2- | g2 (^f=e f4) | g4 G4 | %52
w: when, O when be-|gin you, O|when, O when be-|gin|you To swell|* so * *|high, to|
 B2 c2 d2 =e2 | f4 d2 _e2- | e2 c2 d4 | G16 |] %56
w: swell so high that|I may drown|* me in|you?|
V:4
!p! B8- | B4 A2 G2 | A8 | d8- | d4 c2 B2 |[M:4/4] A2 G2 G2 ^F2 | G8 | x2 B2 B2 B2 | e3 d c4 | %9
 f3 e d4 | e3 e d2 d2 | c2 B2 c4 | d2 f2 f3 e | d2 d2 c3 B | A4 A4 | B2 A2 G4- | G4 ^F4 | %17
!p! x4 G4- | G4 ^F2 =E2 | ^F8 | z4 B4- | B4 A2 G2 | ^F2 B2 A4 | G2"^cresc." d2 d2 d2 | B3 A G4 | %25
 c3 B A4 | d3 c B4 | B2 c2 B2 B2 | A2 B2 B2 A2 | B2 d2 d2 c2 | B2 B2 A2 G2 | ^F4 z2 d2- | %32
 d2 d4 c2 | d4!p! A2 =f2 | e2 d2 c2 B2 | A4 A2 B2 | A2 G2 ^F2 G2 | A8 | G4 G4 | d6 d2 | d4 d4 | %41
 D2 =E2!f! F2 G2 | A4 B2 G2- | G2 A2 ^F4 | G4!p! d4 | c2 B2 A2 GF | =E4 ^F2 d2 | c2 B2 A2 G2- | %48
 G2 ^F=E F4 | G4 B4 | A8 | G2 A2 B2 c2 | d4 d4 | c4 d2 B2- | B2 c2 A4 | G16 |] %56
V:5
 x4 G4- | G4 ^F2 =E2 | ^F8 | z4 B4- | B4 A2 G2 |[M:4/4] ^F2 B2 A4 | G2"^cresc." d2 d2 d2 | %7
 B3 A G4 | c3 B A4 | d3 c B4 | B2 c2 B2 B2 | A2 B2 B2 A2 | B2 d2 d2 c2 | B2 B2 A2 G2 | ^F4 z2 d2- | %15
 d2 d4 c2 | d4 A4 | B8- | B4 A2 G2 | A8 | d8- | d4 c2 B2 | A2 G2 G2 ^F2 | G8 | %24
 x2"^cresc." B2 B2 B2 | e3 d c4 | f3 e d4 | e3 e d2 d2 | c2 B2 c4 | d2 f2 f3 e | d2 d2 c3 B | %31
 A4 A4 | B2 A2 G4 | ^F4 d4 | c2 B2 A2 GF | =E4 ^F2 d2 | c2 B2 A2 G2- | G2 ^F=E F4 | G4 B4 | A8 | %40
 G2 A2 B2 c2 | d4 d4 | c4 d2 B2- | B2 c2 A4 | G4 z2 f2 | e2 d2 c2 B2 | A4 A2 B2 | A2 G2 ^F2 G2 | %48
 A8 | G4 G4 | d6 d2 | d4 d4 | D2 =E2 F2 G2 | A4 B2 G2- | G2 A2 ^F4 | G16 |] %56
V:6
[I:staff -1] G8 |[I:staff +1] D8- | D4 D4 | B,4 G,4 | D8- |[M:4/4] D8 | %6
 G,6"^cresc."[I:staff -1] G2 | G2 G2[I:staff +1] E3 D | C4[I:staff -1] F3 E | %9
[I:staff +1] D4[I:staff -1] G3 F |[I:staff +1] E2 C2 D3 E | F8 | B,4 F,4 | B,2 B,2 C2 C2 | D6 D2 | %15
[I:staff -1] G2 F2 E4 |[I:staff +1] D8 |!p![I:staff -1] G8 |[I:staff +1] D8- | D4 D4 | B,4 G,4 | %21
 D8- | D8 | G,6[I:staff -1] G2 | G2 G2[I:staff +1] E3 D | C4[I:staff -1] F3 E | %26
[I:staff +1] D4[I:staff -1] G3 F |[I:staff +1] E2 C2 D3 E | F8 | B,4 F,4 | B,2 B,2 C2 C2 | D6 D2 | %32
[I:staff -1] G2 F2 E4 |[I:staff +1] D6 D2 | A,2 B,2 F,2 G,2 | A,4 D,2 B,2 | F,2 G,2 D,2 E,2 | D,8 | %38
 G,4"^cresc." G,2[I:staff -1] G2- | G2 ^F=E F4 | G4[I:staff +1] G,4 | B,2 C2 D2 =E2 | %42
[I:staff -1] F4 D2 _E2- | E2 C2 D4 |[I:staff +1] G,6 D,2 | A,2 B,2 F,2 G,2 | A,4 D,2 B,2 | %47
 F,2 G,2 D,2 E,2 | D,8 | G,4"^cresc." G,2[I:staff -1] G2- | G2 ^F=E F4 | G4[I:staff +1] G,4 | %52
 B,2 C2 D2 =E2 | F4 D2 _E2- | E2 C2 D4 | G,16 |] %56

